X:1
T:Cold and Raw
T:Cold and Raw
T:Playford 1695
C:Playford 1695
%%score ( 1 2 )
L:1/8
M:6/8
K:Gmin
V:1 treble 
V:2 treble 
V:1
 D |"Gm" G2 A B2 c |"Dm" d>=ef F2 F |"Cm" G>AG"D7" d>cB/A/ |"Gm" G3 d2 D |"Gm" G2 A B2 c | %6
"Dm" d>=ef F2 F |"Cm" G>AG"D7" d>cB/A/ |"Gm" G3 d2 |: z |"Bb" B>cB B2 B |"F" c>dc c3 | %12
"Bm" d>ef"Eb" g>fe |"Gm" d3 [Ff]2 F |"Gm" B>cB"Bb" B2 B |"Cm" cdf"Eb" g2 f/e/ |"Gm" d>cB"D7" c>BA | %17
"Gm" G3 d2 :| %18
V:2
 x | x6 | x6 | x6 | x6 | x6 | x6 | x6 | x5 |: x | x6 | A2 A A3 | x3 G3 | G3 x3 | D3 D3 | %15
 G2 x G2 x | x3 D2 x | x5 :| %18

